X: 1
T: Calling Wood
C: by Adam Broome and Nicholas Williams
R: jig
S: Fiddle Hell Online 2021-10-13 Portland Collection Jam handout
B: PC3 p.45
Z: 2022 John Chambers <jc:trillian.mit.edu>
M: C|
L: 1/8
K: F
|:\
"F"FGA cAG | A2c- c3 | "Bb/F"FBc dcB | "F"A2c- c3 |\
"F"FGA cAG | A2c- c3 | "Dm"cdf gfd | "C"c2A- A3 :|
"Dm"f3-fgf | "C"edc cde | "Bb"d6 | zFG ABc |\
"Gm"d3- dcB | "F"cAF FGA | "C"G3 zEF | GAB cde ||
"Dm"f3-fgf | "C"edc cde | "Bb"d6 | zFG ABc |\
"Gm"d3- dcB | "F"cAF FED | "C"C6- | C6 |]
